src/sources/forus-platform/resources/_platform-common/assets/img/menu/icon-dropdown-sign-out.svg

<svg width="32" height="32" viewBox="0 0 32 32" fill="none" xmlns="http://www.w3.org/2000/svg">
    <path fill-rule="evenodd" clip-rule="evenodd" d="M16.0503 24H8.60377C8.30189 24 8 23.7 8 23.5V8.6C8 8.2 8.30189 8 8.60377 8H16.0503C16.3522 8 16.6541 8.3 16.6541 8.6V14.1C16.6541 14.4 16.3522 14.7 16.0503 14.7C15.7484 14.7 15.4465 14.4 15.4465 14.1V9.1H9.10692V22.9H15.4465V17.9C15.4465 17.6 15.7484 17.3 16.0503 17.3C16.3522 17.3 16.6541 17.6 16.6541 17.9V23.4C16.6541 23.8 16.3522 24 16.0503 24ZM20.1762 20.1C19.9749 20.3 19.5724 20.3 19.3711 20.1C19.1699 19.9 19.1699 19.6 19.3711 19.4L22.1888 16.6H12.3271C12.0252 16.6 11.7233 16.3 11.7233 16C11.7233 15.7 12.0252 15.5 12.3271 15.5H22.1888L19.3711 12.7C19.1699 12.5 19.1699 12.1 19.3711 11.9C19.5724 11.7 19.9749 11.7 20.1762 11.9L23.8994 15.6C24.0001 15.6 24.0001 15.7 24.0001 15.7V15.8V15.9V16V16.1V16.2V16.3L23.8994 16.4L20.1762 20.1Z" fill="#646F79"/>
</svg>

<svg width="32" height="32" fill="none" xmlns="http://www.w3.org/2000/svg"><path fill-rule="evenodd" clip-rule="evenodd" d="M16.05 24H8.604C8.302 24 8 23.7 8 23.5V8.6c0-.4.302-.6.604-.6h7.446c.302 0 .604.3.604.6v5.5c0 .3-.302.6-.604.6s-.604-.3-.604-.6v-5h-6.34v13.8h6.34v-5c0-.3.302-.6.604-.6s.604.3.604.6v5.5c0 .4-.302.6-.604.6Zm4.126-3.9c-.201.2-.604.2-.805 0a.481.481 0 0 1 0-.7l2.818-2.8h-9.862c-.302 0-.604-.3-.604-.6s.302-.5.604-.5h9.862l-2.818-2.8c-.201-.2-.201-.6 0-.8.201-.2.604-.2.805 0l3.723 3.7c.101 0 .101.1.101.1v.6l-.1.1-3.724 3.7Z" fill="#646F79"/></svg>
